X: 1
T: AJ's
C: Ian Lothian
M: 6/8
R: Jig
L: 1/8
S: https://thesession.org/tunes/10738
K: E
|:~g3 fef|gfe cBc|ecB GFE|F2E CB,C|
~E3 FEc|Bce gfe|f2B BcB|1 bBc def:|2 bBc deg||
|:f2 e- ede|d2 c- cde|Bce GFE|F2E CB,C|
~E3 FEc|Bce gfe|fge ceB|1 bBc deg:|2 bBc def|] 
